X: 162
T:Maire Breathnach`s
M:C
L:1/8
D:Solas : Solas
K:C
c2 Bc AGED | CDE^F G^FGA | c2 Bc AcBA | GEDC A,2  AB |
c2 Bc AGED | CDE^F GABc | dB (3BBB cA (3AAA |  GEDC  A,2 AB :|
K:AMix
| c3 B ABcd | eA (3AAA =g2 fg | eaag a3 e  | gfeA cBAB |
c3 B ABcd | eA (3AAA  =g2 fg | baab a3  e | gfeA cB A2 :|
